X:199
T:Draw Cupid Draw
%%staffsep 50
C:John Young:  Dancing Master, 1710
L:1/4
M:2/2
S:Colin Hume's website,  colinhume.com  - chords can also be printed below the stave.
Q:1/2=95
K:F
P:A
|: "F"f2 "/"Ff | "C"e2- "/"ed | "Gm"BG "C7"Ec | "F"A2- "/"AA |\
"Dm"Ad "/"dc | "G"=B2- "/"Bg | "Am"c3/d/ "G7"d3/c/ | "C"c2- "C7"cf |
"F"fe "/"ed | "Bb"dc "/"cB | "Gm"BA "/"GF | "A7"E2- "/"EA |\
"Dm"Ad "/"dc | "Gm"BA "/"GF | "C7"EF "/"F/4G/4A/ G/F/ | "F"F2- "/"F2 :|
P:B
[| "C7"c2 "/"G G/4A/4B/ | "F"A2- "/"Ae | "Dm"fd "Gm"ge | "A"^c2- "/"ca |\
"Dm"ag "Gm"ba | "Dm"gf "/"ed | "A7"^cd "/"d/4e/4f/ e/d/ | "Dm"d2- "/"df |
"F"fe "/"ed | "Bb"dc "/"cB | "Gm"BA "/"GF | "C"G2- "/"GA |\
"Dm"Ad "/"dc | "Gm"BA "/"GF | "C7"EF "/"F/4G/4A/ G/F/ | "F"F2- "/"F2 |]

